; generated by PrusaSlicer 2.5.0+linux-x64-GTK2 on 2022-12-02 at 14:14:40 UTC


;
;

;
;
; 

; external perimeters extrusion width = 0.45mm
; perimeters extrusion width = 0.45mm
; infill extrusion width = 0.45mm
; solid infill extrusion width = 0.45mm
; top infill extrusion width = 0.40mm
; first layer extrusion width = 0.42mm

M73 P0 R33
M201 X2500 Y2500 Z400 E5000 ; sets maximum accelerations, mm/sec^2
M203 X180 Y180 Z12 E80 ; sets maximum feedrates, mm / sec
M204 P1250 R1250 T2500 ; sets acceleration (P, T) and retract acceleration (R), mm/sec^2
M205 X8.00 Y8.00 Z2.00 E10.00 ; sets the jerk limits, mm/sec
M205 S0 T0 ; sets the minimum extruding and travel feed rate, mm/sec
M107
;TYPE:Custom
M862.3 P "MINI" ; printer model check
G90 ; use absolute coordinates
M83 ; extruder relative mode
M104 S170 ; set extruder temp for bed leveling
M140 S60 ; set bed temp
M109 R170 ; wait for bed leveling temp
M190 S60 ; wait for bed temp
M204 T1250 ; set travel acceleration
G28 ; home all without mesh bed level
G29 ; mesh bed leveling 
M204 T2500 ; restore travel acceleration
M104 S215 ; set extruder temp
G92 E0
G1 Y-2 X179 F2400
G1 Z3 F720
M109 S215 ; wait for extruder temp

; intro line
G1 X170 F1000
G1 Z0.2 F720
G1 X110 E8 F900
G1 X40 E10 F700
G92 E0

M221 S95 ; set flow
G21 ; set units to millimeters
G90 ; use absolute coordinates
M83 ; use relative distances for extrusion
M900 K0.2 ; Filament gcode LA 1.5
; ; Filament gcode LA 1.0
M107
;LAYER_CHANGE
;Z:0.2
;HEIGHT:0.2
;BEFORE_LAYER_CHANGE
G92 E0.0
;0.2


G1 E-3.2 F4200
G1 Z.2 F720
;AFTER_LAYER_CHANGE
;0.2
G1 Z.4
G1 X64.15 Y67.568 F9000
G1 Z.2 F720
G1 E3.2 F2400
M204 P800
;TYPE:Skirt/Brim
;WIDTH:0.42
G1 F1200
G1 X65.195 Y66.692 E.04278
G1 X66.135 Y66.498 E.03008
G1 X113.865 Y66.498 E1.49654
G1 X115.172 Y66.89 E.04278
G1 X116.048 Y67.935 E.04278
G1 X116.242 Y68.875 E.03008
G1 X116.242 Y111.125 E1.32472
G1 X115.85 Y112.432 E.04278
M73 P1 R32
G1 X114.805 Y113.308 E.04278
G1 X113.865 Y113.502 E.03008
G1 X66.135 Y113.502 E1.49654
G1 X64.828 Y113.11 E.04278
G1 X63.952 Y112.065 E.04278
G1 X63.758 Y111.125 E.03008
G1 X63.758 Y68.875 E1.32472
G1 X64.132 Y67.625 E.0409
M204 P1000
; printing object ccheart-Body.stl id:0 copy 0
G1 E-2.24 F4200
;WIPE_START
G1 F7200
G1 X65.195 Y66.692 E-.78411
G1 X65.421 Y66.645 E-.12789
;WIPE_END
G1 E-.048 F4200
G1 Z.4 F720
G1 X66.922 Y69.662 F9000
G1 Z.2 F720
G1 E3.2 F2400
M204 P800
;TYPE:Perimeter
;WIDTH:0.419999
G1 F1200
G1 X113.078 Y69.662 E1.44718
G1 X113.078 Y110.338 E1.27536
G1 X66.922 Y110.338 E1.44718
G1 X66.922 Y69.722 E1.27348
M204 P1000
G1 X66.545 Y69.285 F9000
M204 P800
;TYPE:External perimeter
G1 F1200
G1 X113.455 Y69.285 E1.47083
G1 X113.455 Y110.715 E1.29901
G1 X66.545 Y110.715 E1.47083
G1 X66.545 Y69.345 E1.29713
M204 P1000
M73 P2 R32
G1 X66.933 Y69.381 F9000
G1 E-2.24 F4200
;WIPE_START
G1 F7200
G1 X68.191 Y69.343 E-.912
;WIPE_END
G1 E-.048 F4200
G1 Z.4 F720
G1 X112.965 Y70.538 F9000
G1 Z.2 F720
G1 E3.2 F2400
M204 P800
;TYPE:Solid infill
;WIDTH:0.420282
G1 F1200
G1 X112.372 Y69.945 E.02632
G1 X111.838 Y69.945 E.01675
G1 X112.795 Y70.902 E.04247
G1 X112.795 Y71.436 E.01675
G1 X111.304 Y69.945 E.06616
G1 X110.771 Y69.945 E.01675
G1 X112.795 Y71.969 E.08984
G1 X112.795 Y72.503 E.01675
G1 X110.237 Y69.945 E.11352
G1 X109.703 Y69.945 E.01675
G1 X112.795 Y73.037 E.1372
G1 X112.795 Y73.57 E.01675
G1 X109.17 Y69.945 E.16088
G1 X108.636 Y69.945 E.01675
G1 X112.795 Y74.104 E.18456
G1 X112.795 Y74.638 E.01675
G1 X108.102 Y69.945 E.20825
G1 X107.569 Y69.945 E.01675
G1 X112.795 Y75.171 E.23193
G1 X112.795 Y75.705 E.01675
G1 X107.035 Y69.945 E.25561
G1 X106.501 Y69.945 E.01675
G1 X112.795 Y76.239 E.27929
G1 X112.795 Y76.772 E.01675
G1 X105.968 Y69.945 E.30297
G1 X105.434 Y69.945 E.01675
G1 X112.795 Y77.306 E.32665
G1 X112.795 Y77.84 E.01675
G1 X104.9 Y69.945 E.35033
G1 X104.367 Y69.945 E.01675
G1 X112.795 Y78.373 E.37402
G1 X112.795 Y78.907 E.01675
G1 X103.833 Y69.945 E.3977
G1 X103.299 Y69.945 E.01675
G1 X112.795 Y79.441 E.42138
G1 X112.795 Y79.974 E.01675
G1 X102.766 Y69.945 E.44506
G1 X102.232 Y69.945 E.01675
G1 X112.795 Y80.508 E.46874
G1 X112.795 Y81.042 E.01675
G1 X101.698 Y69.945 E.49242
G1 X101.165 Y69.945 E.01675
G1 X112.795 Y81.575 E.51611
G1 X112.795 Y82.109 E.01675
G1 X100.631 Y69.945 E.53979
G1 X100.097 Y69.945 E.01675
G1 X112.795 Y82.643 E.56347
G1 X112.795 Y83.176 E.01675
G1 X99.564 Y69.945 E.58715
G1 X99.03 Y69.945 E.01675
G1 X112.795 Y83.71 E.61083
G1 X112.795 Y84.244 E.01675
G1 X98.496 Y69.945 E.63451
G1 X97.963 Y69.945 E.01675
G1 X112.795 Y84.777 E.65819
G1 X112.795 Y85.311 E.01675
M73 P3 R32
G1 X97.429 Y69.945 E.68188
G1 X96.895 Y69.945 E.01675
G1 X112.795 Y85.845 E.70556
G1 X112.795 Y86.378 E.01675
G1 X96.362 Y69.945 E.72924
G1 X95.828 Y69.945 E.01675
G1 X112.795 Y86.912 E.75292
G1 X112.795 Y87.446 E.01675
G1 X95.294 Y69.945 E.7766
G1 X94.761 Y69.945 E.01675
G1 X112.795 Y87.98 E.80028
G1 X112.795 Y88.513 E.01675
G1 X94.227 Y69.945 E.82397
G1 X93.693 Y69.945 E.01675
G1 X112.795 Y89.047 E.84765
G1 X112.795 Y89.581 E.01675
G1 X93.159 Y69.945 E.87133
G1 X92.626 Y69.945 E.01675
G1 X112.795 Y90.114 E.89501
G1 X112.795 Y90.648 E.01675
G1 X92.092 Y69.945 E.91869
G1 X91.558 Y69.945 E.01675
G1 X112.795 Y91.182 E.94237
G1 X112.795 Y91.715 E.01675
G1 X91.025 Y69.945 E.96606
G1 X90.491 Y69.945 E.01675
G1 X112.795 Y92.249 E.98974
G1 X112.795 Y92.783 E.01675
M73 P4 R32
G1 X89.957 Y69.945 E1.01342
G1 X89.424 Y69.945 E.01675
M73 P4 R31
G1 X112.795 Y93.316 E1.0371
G1 X112.795 Y93.85 E.01675
G1 X88.89 Y69.945 E1.06078
G1 X88.356 Y69.945 E.01675
G1 X112.795 Y94.384 E1.08446
G1 X112.795 Y94.917 E.01675
G1 X87.823 Y69.945 E1.10814
G1 X87.289 Y69.945 E.01675
G1 X112.795 Y95.451 E1.13183
G1 X112.795 Y95.985 E.01675
G1 X86.755 Y69.945 E1.15551
G1 X86.222 Y69.945 E.01675
G1 X112.795 Y96.518 E1.17919
G1 X112.795 Y97.052 E.01675
G1 X85.688 Y69.945 E1.20287
G1 X85.154 Y69.945 E.01675
G1 X112.795 Y97.586 E1.22655
G1 X112.795 Y98.119 E.01675
G1 X84.621 Y69.945 E1.25023
G1 X84.087 Y69.945 E.01675
M73 P5 R31
G1 X112.795 Y98.653 E1.27392
G1 X112.795 Y99.187 E.01675
G1 X83.553 Y69.945 E1.2976
G1 X83.02 Y69.945 E.01675
G1 X112.795 Y99.72 E1.32128
G1 X112.795 Y100.254 E.01675
G1 X82.486 Y69.945 E1.34496
G1 X81.952 Y69.945 E.01675
G1 X112.795 Y100.788 E1.36864
G1 X112.795 Y101.321 E.01675
G1 X81.419 Y69.945 E1.39232
G1 X80.885 Y69.945 E.01675
G1 X112.795 Y101.855 E1.416
G1 X112.795 Y102.389 E.01675
G1 X80.351 Y69.945 E1.43969
G1 X79.818 Y69.945 E.01675
G1 X112.795 Y102.922 E1.46337
G1 X112.795 Y103.456 E.01675
M73 P6 R31
G1 X79.284 Y69.945 E1.48705
G1 X78.75 Y69.945 E.01675
G1 X112.795 Y103.99 E1.51073
G1 X112.795 Y104.523 E.01675
G1 X78.217 Y69.945 E1.53441
G1 X77.683 Y69.945 E.01675
G1 X112.795 Y105.057 E1.55809
G1 X112.795 Y105.591 E.01675
G1 X77.149 Y69.945 E1.58178
G1 X76.616 Y69.945 E.01675
G1 X112.795 Y106.124 E1.60546
G1 X112.795 Y106.658 E.01675
G1 X76.082 Y69.945 E1.62914
G1 X75.548 Y69.945 E.01675
G1 X112.795 Y107.192 E1.65282
G1 X112.795 Y107.725 E.01675
M73 P7 R31
G1 X75.015 Y69.945 E1.6765
G1 X74.481 Y69.945 E.01675
M73 P7 R30
G1 X112.795 Y108.259 E1.70018
G1 X112.795 Y108.793 E.01675
G1 X73.947 Y69.945 E1.72387
G1 X73.414 Y69.945 E.01675
G1 X112.795 Y109.326 E1.74755
G1 X112.795 Y109.86 E.01675
G1 X72.88 Y69.945 E1.77123
G1 X72.346 Y69.945 E.01675
G1 X112.457 Y110.055 E1.77989
G1 X111.923 Y110.055 E.01675
G1 X71.813 Y69.945 E1.77989
G1 X71.279 Y69.945 E.01675
M73 P8 R30
G1 X111.389 Y110.055 E1.77989
G1 X110.856 Y110.055 E.01675
G1 X70.745 Y69.945 E1.77989
G1 X70.212 Y69.945 E.01675
G1 X110.322 Y110.055 E1.77989
G1 X109.788 Y110.055 E.01675
G1 X69.678 Y69.945 E1.77989
G1 X69.144 Y69.945 E.01675
G1 X109.255 Y110.055 E1.77989
G1 X108.721 Y110.055 E.01675
G1 X68.611 Y69.945 E1.77989
G1 X68.077 Y69.945 E.01675
G1 X108.187 Y110.055 E1.77989
G1 X107.654 Y110.055 E.01675
M73 P9 R30
G1 X67.543 Y69.945 E1.77989
G1 X67.205 Y69.945 E.01062
G1 X67.205 Y70.14 E.00613
G1 X107.12 Y110.055 E1.77122
G1 X106.586 Y110.055 E.01675
G1 X67.205 Y70.674 E1.74754
G1 X67.205 Y71.207 E.01675
G1 X106.053 Y110.055 E1.72386
G1 X105.519 Y110.055 E.01675
G1 X67.205 Y71.741 E1.70018
G1 X67.205 Y72.275 E.01675
G1 X104.985 Y110.055 E1.6765
G1 X104.452 Y110.055 E.01675
G1 X67.205 Y72.808 E1.65282
G1 X67.205 Y73.342 E.01675
M73 P10 R30
G1 X103.918 Y110.055 E1.62913
G1 X103.384 Y110.055 E.01675
M73 P10 R29
G1 X67.205 Y73.876 E1.60545
G1 X67.205 Y74.409 E.01675
G1 X102.851 Y110.055 E1.58177
G1 X102.317 Y110.055 E.01675
G1 X67.205 Y74.943 E1.55809
G1 X67.205 Y75.477 E.01675
G1 X101.783 Y110.055 E1.53441
G1 X101.25 Y110.055 E.01675
G1 X67.205 Y76.01 E1.51073
G1 X67.205 Y76.544 E.01675
G1 X100.716 Y110.055 E1.48705
G1 X100.182 Y110.055 E.01675
G1 X67.205 Y77.078 E1.46336
G1 X67.205 Y77.612 E.01675
M73 P11 R29
G1 X99.648 Y110.055 E1.43968
G1 X99.115 Y110.055 E.01675
G1 X67.205 Y78.145 E1.416
G1 X67.205 Y78.679 E.01675
G1 X98.581 Y110.055 E1.39232
G1 X98.047 Y110.055 E.01675
G1 X67.205 Y79.213 E1.36864
G1 X67.205 Y79.746 E.01675
G1 X97.514 Y110.055 E1.34496
G1 X96.98 Y110.055 E.01675
G1 X67.205 Y80.28 E1.32127
G1 X67.205 Y80.814 E.01675
G1 X96.446 Y110.055 E1.29759
G1 X95.913 Y110.055 E.01675
G1 X67.205 Y81.347 E1.27391
G1 X67.205 Y81.881 E.01675
G1 X95.379 Y110.055 E1.25023
G1 X94.845 Y110.055 E.01675
G1 X67.205 Y82.415 E1.22655
G1 X67.205 Y82.948 E.01675
M73 P12 R29
G1 X94.312 Y110.055 E1.20287
G1 X93.778 Y110.055 E.01675
G1 X67.205 Y83.482 E1.17918
G1 X67.205 Y84.016 E.01675
G1 X93.244 Y110.055 E1.1555
G1 X92.711 Y110.055 E.01675
G1 X67.205 Y84.549 E1.13182
G1 X67.205 Y85.083 E.01675
G1 X92.177 Y110.055 E1.10814
G1 X91.643 Y110.055 E.01675
G1 X67.205 Y85.617 E1.08446
G1 X67.205 Y86.15 E.01675
G1 X91.11 Y110.055 E1.06078
G1 X90.576 Y110.055 E.01675
G1 X67.205 Y86.684 E1.0371
G1 X67.205 Y87.218 E.01675
G1 X90.042 Y110.055 E1.01341
G1 X89.509 Y110.055 E.01675
G1 X67.205 Y87.751 E.98973
G1 X67.205 Y88.285 E.01675
G1 X88.975 Y110.055 E.96605
G1 X88.441 Y110.055 E.01675
M73 P13 R28
G1 X67.205 Y88.819 E.94237
G1 X67.205 Y89.352 E.01675
G1 X87.908 Y110.055 E.91869
G1 X87.374 Y110.055 E.01675
G1 X67.205 Y89.886 E.89501
G1 X67.205 Y90.42 E.01675
G1 X86.84 Y110.055 E.87132
G1 X86.307 Y110.055 E.01675
G1 X67.205 Y90.953 E.84764
G1 X67.205 Y91.487 E.01675
G1 X85.773 Y110.055 E.82396
G1 X85.239 Y110.055 E.01675
G1 X67.205 Y92.021 E.80028
G1 X67.205 Y92.554 E.01675
G1 X84.706 Y110.055 E.7766
G1 X84.172 Y110.055 E.01675
G1 X67.205 Y93.088 E.75292
G1 X67.205 Y93.622 E.01675
G1 X83.638 Y110.055 E.72923
G1 X83.105 Y110.055 E.01675
G1 X67.205 Y94.155 E.70555
G1 X67.205 Y94.689 E.01675
G1 X82.571 Y110.055 E.68187
G1 X82.037 Y110.055 E.01675
G1 X67.205 Y95.223 E.65819
G1 X67.205 Y95.756 E.01675
G1 X81.504 Y110.055 E.63451
G1 X80.97 Y110.055 E.01675
G1 X67.205 Y96.29 E.61083
G1 X67.205 Y96.824 E.01675
M73 P14 R28
G1 X80.436 Y110.055 E.58715
G1 X79.903 Y110.055 E.01675
G1 X67.205 Y97.357 E.56346
G1 X67.205 Y97.891 E.01675
G1 X79.369 Y110.055 E.53978
G1 X78.835 Y110.055 E.01675
G1 X67.205 Y98.425 E.5161
G1 X67.205 Y98.958 E.01675
G1 X78.302 Y110.055 E.49242
G1 X77.768 Y110.055 E.01675
G1 X67.205 Y99.492 E.46874
G1 X67.205 Y100.026 E.01675
G1 X77.234 Y110.055 E.44506
G1 X76.701 Y110.055 E.01675
G1 X67.205 Y100.559 E.42137
G1 X67.205 Y101.093 E.01675
G1 X76.167 Y110.055 E.39769
G1 X75.633 Y110.055 E.01675
G1 X67.205 Y101.627 E.37401
G1 X67.205 Y102.16 E.01675
G1 X75.1 Y110.055 E.35033
G1 X74.566 Y110.055 E.01675
G1 X67.205 Y102.694 E.32665
G1 X67.205 Y103.228 E.01675
G1 X74.032 Y110.055 E.30297
G1 X73.499 Y110.055 E.01675
G1 X67.205 Y103.761 E.27929
G1 X67.205 Y104.295 E.01675
G1 X72.965 Y110.055 E.2556
G1 X72.431 Y110.055 E.01675
G1 X67.205 Y104.829 E.23192
G1 X67.205 Y105.362 E.01675
G1 X71.898 Y110.055 E.20824
G1 X71.364 Y110.055 E.01675
G1 X67.205 Y105.896 E.18456
G1 X67.205 Y106.43 E.01675
G1 X70.83 Y110.055 E.16088
G1 X70.297 Y110.055 E.01675
G1 X67.205 Y106.963 E.1372
G1 X67.205 Y107.497 E.01675
G1 X69.763 Y110.055 E.11351
G1 X69.229 Y110.055 E.01675
G1 X67.205 Y108.031 E.08983
G1 X67.205 Y108.564 E.01675
G1 X68.696 Y110.055 E.06615
G1 X68.162 Y110.055 E.01675
G1 X67.205 Y109.098 E.04247
G1 X67.205 Y109.632 E.01675
G1 X67.798 Y110.225 E.02632
M204 P1000
; stop printing object ccheart-Body.stl id:0 copy 0
M106 S84.15
;LAYER_CHANGE
;Z:0.4
;HEIGHT:0.2
;BEFORE_LAYER_CHANGE
G92 E0.0
;0.4


G1 E-2.24 F4200
;WIPE_START
G1 F7200
G1 X67.205 Y109.632 E-.4648
G1 X67.205 Y109.098 E-.29574
G1 X67.398 Y109.291 E-.15146
;WIPE_END
G1 E-.048 F4200
G1 Z.4 F720
;AFTER_LAYER_CHANGE
;0.4
M104 S210 ; set temperature
G1 Z.6
G1 X63.758 Y109.291 F9000
G1 Z.4 F720
G1 E3.2 F2400
;TYPE:Skirt/Brim
;WIDTH:0.42
G1 X63.758 Y68.875 E1.26723
G1 X64.15 Y67.568 E.04278
G1 X65.195 Y66.692 E.04278
G1 X66.135 Y66.498 E.03008
G1 X113.865 Y66.498 E1.49654
G1 X115.172 Y66.89 E.04278
G1 X116.048 Y67.935 E.04278
G1 X116.242 Y68.875 E.03008
G1 X116.242 Y111.125 E1.32472
G1 X115.85 Y112.432 E.04278
G1 X114.805 Y113.308 E.04278
G1 X113.865 Y113.502 E.03008
G1 X66.135 Y113.502 E1.49654
G1 X64.828 Y113.11 E.04278
G1 X63.952 Y112.065 E.04278
G1 X63.758 Y111.125 E.03008
G1 X63.758 Y109.351 E.05561
; printing object ccheart-Body.stl id:0 copy 0
G1 E-2.24 F4200
;WIPE_START
G1 F7200
G1 X63.758 Y107.706 E-.912
;WIPE_END
G1 E-.048 F4200
G1 Z.6 F720
G1 X66.767 Y69.507 F9000
G1 Z.4 F720
G1 E3.2 F2400
M204 P800
;TYPE:Perimeter
;WIDTH:0.449999
G1 X113.233 Y69.507 E1.57281
G1 X113.233 Y110.493 E1.38732
M73 P15 R28
G1 X66.767 Y110.493 E1.57281
G1 X66.767 Y69.567 E1.38529
M204 P1000
G1 X66.36 Y69.1 F9000
M204 P800
;TYPE:External perimeter
G1 F1800
G1 X113.64 Y69.1 E1.60037
G1 X113.64 Y110.9 E1.41488
G1 X66.36 Y110.9 E1.60037
G1 X66.36 Y69.16 E1.41285
M204 P1000
G1 X66.748 Y69.196 F9000
G1 E-2.24 F4200
;WIPE_START
G1 F7200
G1 X68.006 Y69.158 E-.912
;WIPE_END
G1 E-.048 F4200
G1 Z.6 F720
G1 X112.287 Y110.371 F9000
G1 Z.4 F720
G1 E3.2 F2400
;TYPE:Solid infill
;WIDTH:0.450534
G1 F4800
G1 X112.928 Y109.73 E.03072
G1 X112.928 Y109.153 E.01954
G1 X111.893 Y110.188 E.04957
G1 X111.317 Y110.188 E.01954
G1 X112.928 Y108.577 E.0772
G1 X112.928 Y108.001 E.01954
G1 X110.741 Y110.188 E.10483
G1 X110.164 Y110.188 E.01954
G1 X112.928 Y107.424 E.13246
G1 X112.928 Y106.848 E.01954
G1 X109.588 Y110.188 E.16009
G1 X109.011 Y110.188 E.01954
G1 X112.928 Y106.271 E.18772
G1 X112.928 Y105.695 E.01954
G1 X108.435 Y110.188 E.21535
G1 X107.858 Y110.188 E.01954
G1 X112.928 Y105.118 E.24298
G1 X112.928 Y104.542 E.01954
G1 X107.282 Y110.188 E.27061
G1 X106.705 Y110.188 E.01954
G1 X112.928 Y103.965 E.29824
G1 X112.928 Y103.389 E.01954
G1 X106.129 Y110.188 E.32588
G1 X105.553 Y110.188 E.01954
G1 X112.928 Y102.813 E.35351
G1 X112.928 Y102.236 E.01954
G1 X104.976 Y110.188 E.38114
G1 X104.4 Y110.188 E.01954
G1 X112.928 Y101.66 E.40877
G1 X112.928 Y101.083 E.01954
G1 X103.823 Y110.188 E.4364
G1 X103.247 Y110.188 E.01954
G1 X112.928 Y100.507 E.46403
G1 X112.928 Y99.93 E.01954
G1 X102.67 Y110.188 E.49166
G1 X102.094 Y110.188 E.01954
G1 X112.928 Y99.354 E.51929
G1 X112.928 Y98.777 E.01954
G1 X101.517 Y110.188 E.54692
G1 X100.941 Y110.188 E.01954
G1 X112.928 Y98.201 E.57455
G1 X112.928 Y97.624 E.01954
G1 X100.364 Y110.188 E.60218
G1 X99.788 Y110.188 E.01954
G1 X112.928 Y97.048 E.62981
G1 X112.928 Y96.472 E.01954
G1 X99.212 Y110.188 E.65744
G1 X98.635 Y110.188 E.01954
G1 X112.928 Y95.895 E.68507
G1 X112.928 Y95.319 E.01954
G1 X98.059 Y110.188 E.71271
G1 X97.482 Y110.188 E.01954
G1 X112.928 Y94.742 E.74034
G1 X112.928 Y94.166 E.01954
G1 X96.906 Y110.188 E.76797
G1 X96.329 Y110.188 E.01954
G1 X112.928 Y93.589 E.7956
G1 X112.928 Y93.013 E.01954
G1 X95.753 Y110.188 E.82323
G1 X95.176 Y110.188 E.01954
G1 X112.928 Y92.436 E.85086
G1 X112.928 Y91.86 E.01954
G1 X94.6 Y110.188 E.87849
G1 X94.023 Y110.188 E.01954
G1 X112.928 Y91.283 E.90612
G1 X112.928 Y90.707 E.01954
G1 X93.447 Y110.188 E.93375
G1 X92.871 Y110.188 E.01954
G1 X112.928 Y90.131 E.96138
G1 X112.928 Y89.554 E.01954
M73 P16 R28
G1 X92.294 Y110.188 E.98901
G1 X91.718 Y110.188 E.01954
G1 X112.928 Y88.978 E1.01664
G1 X112.928 Y88.401 E.01954
M73 P16 R27
G1 X91.141 Y110.188 E1.04427
G1 X90.565 Y110.188 E.01954
G1 X112.928 Y87.825 E1.0719
